( Made using CamBam - http://www.cambam.co.uk )
( sdm 9/16/2016 1:27:25 AM )
( T0 : 0.0 )
G21 G90 G64 G40
G0 Z3.0
( T0 : 0.0 )
T0 M6
( Engrave1 )
G17
M3 S1000
G0 X71.8374 Y-22.1756
G0 Z1.0
G1 F300.0 Z-0.4
G1 F800.0 X65.81 Y-32.6226
G1 X59.8212 Y-22.2715
G1 Y-32.6226
G1 X53.8134
G1 Y-1.7416
G1 X65.81 Y-22.1756
G1 X77.8067 Y-1.7416
G1 Y-32.6226
G1 X71.8178
G1 X71.8374 Y-22.1756
G0 Z3.0
G0 X50.3151 Y-19.9987
G0 Z1.0
G1 F300.0 Z-0.4
G1 F800.0 X50.2519 Y-20.6234
G1 X50.1586 Y-21.2945
G1 X50.0414 Y-21.9507
G1 X49.9003 Y-22.592
G1 X49.7353 Y-23.2184
G1 X49.5463 Y-23.8298
G1 X49.3335 Y-24.4262
G1 X49.0967 Y-25.0078
G1 X48.7307 Y-25.7575
G1 X48.3407 Y-26.457
G1 X47.9269 Y-27.1064
G1 X47.4891 Y-27.7055
G1 X47.0378 Y-28.2539
G1 X46.5637 Y-28.7699
G1 X46.0669 Y-29.2536
G1 X45.5473 Y-29.705
G1 X45.005 Y-30.1242
G1 X44.44 Y-30.511
G1 X43.8522 Y-30.8656
G1 X43.2417 Y-31.1879
G1 X42.7037 Y-31.4258
G1 X42.1417 Y-31.6422
G1 X41.5558 Y-31.837
G1 X40.946 Y-32.0104
G1 X40.941 Y-32.0134
G1 X40.9354 Y-32.0164
G1 X40.9228 Y-32.0227
G1 X40.9082 Y-32.0291
G1 X40.8915 Y-32.0357
G1 X40.8522 Y-32.0493
G1 X40.8048 Y-32.0637
G1 X40.6857 Y-32.0943
G1 X40.5344 Y-32.1277
G1 X39.6063 Y-32.2878
G1 X38.5827 Y-32.4239
G1 X38.193 Y-32.4579
G1 X37.8847 Y-32.4692
G1 X35.8612 Y-32.5843
G1 X33.6563 Y-32.6226
G1 X25.7347
G1 Y-3.8846
G1 X32.4696
G1 X37.4637 Y-4.0373
G1 X39.0733 Y-4.1905
G1 X39.8081 Y-4.2958
G1 X40.4963 Y-4.4202
G1 X41.1641 Y-4.578
G1 X41.8378 Y-4.7837
G1 X42.5176 Y-5.0371
G1 X43.2032 Y-5.3383
G1 X43.8982 Y-5.6912
G1 X44.5576 Y-6.0803
G1 X45.1814 Y-6.5056
G1 X45.7697 Y-6.9671
G1 X46.3223 Y-7.4647
G1 X46.8394 Y-7.9985
G1 X47.3209 Y-8.5685
G1 X47.7668 Y-9.1747
G1 X48.1774 Y-9.8075
G1 X48.5531 Y-10.4573
G1 X48.8938 Y-11.1241
G1 X49.1995 Y-11.8079
G1 X49.4702 Y-12.5088
G1 X49.706 Y-13.2267
G1 X49.9068 Y-13.9616
G1 X50.0726 Y-14.7135
G1 X50.2065 Y-15.5556
G1 X50.3022 Y-16.4166
G1 X50.3596 Y-17.2967
G1 X50.3787 Y-18.1959
G1 X50.3213 Y-19.9373
G1 X50.3151 Y-19.9987
G0 Z3.0
G0 X44.1456 Y-19.4122
G0 Z1.0
G1 F300.0 Z-0.4
G1 F800.0 X44.1603 Y-19.2569
G1 X44.189 Y-18.7483
G1 X44.1986 Y-18.2344
G1 X44.189 Y-17.7206
G1 X44.1603 Y-17.2125
G1 X44.1125 Y-16.71
G1 X44.0455 Y-16.2133
G1 X43.9594 Y-15.7223
G1 X43.8542 Y-15.2369
G1 X43.7298 Y-14.7573
G1 X43.5863 Y-14.2833
G1 X43.418 Y-13.8201
G1 X43.3224 Y-13.5945
G1 X43.2192 Y-13.3728
G1 X43.1084 Y-13.155
G1 X42.9899 Y-12.9412
G1 X42.8638 Y-12.7314
G1 X42.7301 Y-12.5255
G1 X42.4398 Y-12.1256
G1 X42.119 Y-11.7416
G1 X41.7677 Y-11.3734
G1 X41.386 Y-11.021
G1 X41.1493 Y-10.8323
G1 X40.9081 Y-10.6586
G1 X40.6624 Y-10.4998
G1 X40.4123 Y-10.356
G1 X40.1577 Y-10.2271
G1 X39.8986 Y-10.1132
G1 X39.6351 Y-10.0143
G1 X39.3671 Y-9.9303
G1 X38.8153 Y-9.7904
G1 X38.2408 Y-9.6768
G1 X37.6436 Y-9.5896
G1 X37.0237 Y-9.5288
G1 X35.8015 Y-9.4545
G1 X34.4311 Y-9.4234
G1 X31.7235 Y-9.4139
G1 Y-27.0548
G1 X34.5362
G1 X35.9901 Y-27.0261
G1 X37.2529 Y-26.9399
G1 X37.7516 Y-26.8945
G1 X38.2143 Y-26.8348
G1 X38.6412 Y-26.7607
G1 X39.0322 Y-26.6723
G1 X39.3746 Y-26.5698
G1 X39.7032 Y-26.4535
G1 X40.018 Y-26.3234
G1 X40.3191 Y-26.1796
G1 X40.6064 Y-26.022
G1 X40.88 Y-25.8507
G1 X41.1399 Y-25.6656
G1 X41.386 Y-25.4667
G1 Y-25.4477
G1 X41.7677 Y-25.0998
G1 X42.119 Y-24.7351
G1 X42.4398 Y-24.3536
G1 X42.5888 Y-24.1566
G1 X42.7301 Y-23.9554
G1 X42.8638 Y-23.75
G1 X42.9899 Y-23.5405
G1 X43.1084 Y-23.3267
G1 X43.2192 Y-23.1088
G1 X43.3224 Y-22.8866
G1 X43.418 Y-22.6603
G1 X43.5863 Y-22.1951
G1 X43.7298 Y-21.7189
G1 X43.8542 Y-21.2373
G1 X43.9594 Y-20.7502
G1 X44.0455 Y-20.2578
G1 X44.1125 Y-19.76
G1 X44.1456 Y-19.4122
G0 Z3.0
G0 X22.163 Y-22.8295
G0 Z1.0
G1 F300.0 Z-0.4
G1 F800.0 X22.2243 Y-23.2237
G1 X22.2721 Y-23.6694
G1 X22.3008 Y-24.1301
G1 X22.3104 Y-24.6057
G1 Y-24.7206
G1 X22.2953 Y-25.1907
G1 X22.2597 Y-25.6491
G1 X22.2035 Y-26.0959
G1 X22.1267 Y-26.531
G1 X22.0294 Y-26.9545
G1 X21.9116 Y-27.3663
G1 X21.7732 Y-27.7665
G1 X21.6142 Y-28.155
G1 X21.4347 Y-28.5318
G1 X21.2347 Y-28.897
G1 X21.0141 Y-29.2505
G1 X20.773 Y-29.5924
G1 X20.5112 Y-29.9226
G1 X20.229 Y-30.2411
G1 X19.9262 Y-30.548
G1 X19.6028 Y-30.8433
G1 X19.2641 Y-31.1246
G1 X18.9151 Y-31.3898
G1 X18.5559 Y-31.6388
G1 X18.1864 Y-31.8717
G1 X17.8067 Y-32.0885
G1 X17.4167 Y-32.2891
G1 X17.0165 Y-32.4736
G1 X16.6061 Y-32.6419
G1 X16.1855 Y-32.794
G1 X15.7545 Y-32.9301
G1 X15.3134 Y-33.05
G1 X14.862 Y-33.1537
G1 X14.4004 Y-33.2413
G1 X13.9285 Y-33.3127
G1 X13.4464 Y-33.368
G1 X12.9541 Y-33.4072
G1 X12.3607 Y-33.4261
G1 X11.7048 Y-33.4043
G1 X11.0573 Y-33.3388
G1 X10.4181 Y-33.2297
G1 X9.7873 Y-33.0769
G1 X9.1649 Y-32.8805
G1 X8.5508 Y-32.6404
G1 X7.9451 Y-32.3567
G1 X7.3477 Y-32.0293
G1 X7.021 Y-31.83
G1 X6.7056 Y-31.6195
G1 X6.4016 Y-31.3977
G1 X6.1089 Y-31.1648
G1 X5.8276 Y-30.9206
G1 X5.5577 Y-30.6652
G1 X5.2991 Y-30.3987
G1 X5.0519 Y-30.1209
G1 X4.816 Y-29.8318
G1 X4.5915 Y-29.5316
G1 X4.3783 Y-29.2202
G1 X4.1765 Y-28.8975
G1 X3.9861 Y-28.5636
G1 X3.807 Y-28.2185
G1 X3.6392 Y-27.8622
G1 X3.4829 Y-27.4947
G1 X7.9221 Y-23.6488
G1 X8.0591 Y-24.1054
G1 X8.212 Y-24.5374
G1 X8.3807 Y-24.945
G1 X8.5653 Y-25.328
G1 X8.7658 Y-25.6865
G1 X8.9821 Y-26.0204
G1 X9.0962 Y-26.1782
G1 X9.2142 Y-26.3299
G1 X9.3363 Y-26.4754
G1 X9.4622 Y-26.6148
G1 X9.5947 Y-26.7469
G1 X9.7363 Y-26.8705
G1 X9.8869 Y-26.9855
G1 X10.0465 Y-27.092
G1 X10.2151 Y-27.19
G1 X10.3928 Y-27.2795
G1 X10.5795 Y-27.3604
G1 X10.7753 Y-27.4329
G1 X10.9801 Y-27.4968
G1 X11.194 Y-27.5522
G1 X11.4168 Y-27.599
G1 X11.6488 Y-27.6374
G1 X11.8897 Y-27.6672
G1 X12.1397 Y-27.6885
G1 X12.6669 Y-27.7055
G1 X12.8516 Y-27.7024
G1 X13.0324 Y-27.693
G1 X13.2095 Y-27.6773
G1 X13.3827 Y-27.6553
G1 X13.5522 Y-27.627
G1 X13.7178 Y-27.5925
G1 X13.8795 Y-27.5517
G1 X14.0375 Y-27.5046
G1 X14.1917 Y-27.4512
G1 X14.342 Y-27.3916
G1 X14.4885 Y-27.3256
G1 X14.6312 Y-27.2534
G1 X14.7701 Y-27.1749
G1 X14.9052 Y-27.0901
G1 X15.0365 Y-26.9991
G1 X15.1639 Y-26.9017
G1 X15.2855 Y-26.798
G1 X15.3993 Y-26.6876
G1 X15.5052 Y-26.5707
G1 X15.6033 Y-26.4472
G1 X15.6935 Y-26.3172
G1 X15.7759 Y-26.1806
G1 X15.8504 Y-26.0374
G1 X15.9171 Y-25.8876
G1 X15.9759 Y-25.7313
G1 X16.0269 Y-25.5684
G1 X16.0701 Y-25.3989
G1 X16.1054 Y-25.2229
G1 X16.1329 Y-25.0402
G1 X16.1525 Y-24.851
G1 X16.1642 Y-24.6553
G1 X16.1682 Y-24.453
G1 X16.1661 Y-24.3494
G1 X16.1598 Y-24.247
G1 X16.1493 Y-24.1457
G1 X16.1347 Y-24.0455
G1 X16.1158 Y-23.9464
G1 X16.0928 Y-23.8484
G1 X16.0656 Y-23.7515
G1 X16.0342 Y-23.6557
G1 X15.9986 Y-23.561
G1 X15.9589 Y-23.4674
G1 X15.9149 Y-23.375
G1 X15.8668 Y-23.2836
G1 X15.8145 Y-23.1933
G1 X15.758 Y-23.1041
G1 X15.6973 Y-23.0161
G1 X15.6324 Y-22.9291
G1 X15.5634 Y-22.8432
G1 X15.4901 Y-22.7585
G1 X15.3311 Y-22.5923
G1 X15.1553 Y-22.4305
G1 X14.9628 Y-22.2731
G1 X14.7535 Y-22.1201
G1 X14.5275 Y-21.9715
G1 X14.2847 Y-21.8274
G1 X14.0252 Y-21.6877
G1 X10.505 Y-19.8414
G1 X9.2409 Y-19.1251
G1 X8.6367 Y-18.7392
G1 X8.051 Y-18.3347
G1 X7.484 Y-17.9117
G1 X6.9354 Y-17.4701
G1 X6.4055 Y-17.01
G1 X5.8941 Y-16.5314
G1 X5.6623 Y-16.297
G1 X5.4455 Y-16.053
G1 X5.2437 Y-15.7995
G1 X5.0568 Y-15.5364
G1 X4.8848 Y-15.2638
G1 X4.7278 Y-14.9816
G1 X4.5858 Y-14.6898
G1 X4.4587 Y-14.3884
G1 X4.3466 Y-14.0775
G1 X4.2494 Y-13.757
G1 X4.1672 Y-13.427
G1 X4.0999 Y-13.0874
G1 X4.0475 Y-12.7382
G1 X4.0102 Y-12.3794
G1 X3.9877 Y-12.0111
G1 X3.9803 Y-11.6332
G1 Y-11.2892
G1 X4.0043 Y-10.8699
G1 X4.0478 Y-10.4586
G1 X4.1108 Y-10.0554
G1 X4.1932 Y-9.6603
G1 X4.295 Y-9.2733
G1 X4.4162 Y-8.8943
G1 X4.5569 Y-8.5235
G1 X4.717 Y-8.1607
G1 X4.8966 Y-7.8059
G1 X5.0956 Y-7.4593
G1 X5.314 Y-7.1207
G1 X5.5518 Y-6.7902
G1 X5.8091 Y-6.4678
G1 X6.0858 Y-6.1535
G1 X6.382 Y-5.8472
G1 X6.6976 Y-5.5491
G1 X7.0165 Y-5.2734
G1 X7.3421 Y-5.0154
G1 X7.6742 Y-4.7753
G1 X8.0129 Y-4.553
G1 X8.3582 Y-4.3484
G1 X8.7101 Y-4.1617
G1 X9.0685 Y-3.9927
G1 X9.4335 Y-3.8415
G1 X9.8051 Y-3.7081
G1 X10.1833 Y-3.5925
G1 X10.5681 Y-3.4946
G1 X10.9594 Y-3.4146
G1 X11.3573 Y-3.3524
G1 X11.7618 Y-3.3079
G1 X12.1728 Y-3.2812
G1 X12.5905 Y-3.2723
G1 X12.8202
G1 X13.5095 Y-3.3015
G1 X14.1709 Y-3.3602
G1 X14.8046 Y-3.4485
G1 X15.4104 Y-3.5665
G1 X15.9884 Y-3.714
G1 X16.5386 Y-3.8911
G1 X17.061 Y-4.0977
G1 X17.3117 Y-4.2122
G1 X17.5555 Y-4.334
G1 X17.7942 Y-4.4651
G1 X18.0295 Y-4.6073
G1 X18.2614 Y-4.7607
G1 X18.49 Y-4.9252
G1 X18.7152 Y-5.1009
G1 X18.9371 Y-5.2877
G1 X19.1556 Y-5.4856
G1 X19.3707 Y-5.6947
G1 X19.7909 Y-6.1463
G1 X20.1977 Y-6.6424
G1 X20.5911 Y-7.1831
G1 X20.971 Y-7.7684
G1 X16.9149 Y-11.3656
G1 X16.5535 Y-10.8346
G1 X16.1588 Y-10.3323
G1 X15.7308 Y-9.8588
G1 X15.2693 Y-9.4139
G1 X15.1529 Y-9.3143
G1 X15.0331 Y-9.221
G1 X14.9101 Y-9.1342
G1 X14.7838 Y-9.0538
G1 X14.6542 Y-8.9799
G1 X14.5213 Y-8.9124
G1 X14.3851 Y-8.8513
G1 X14.2457 Y-8.7966
G1 X14.1029 Y-8.7484
G1 X13.9569 Y-8.7066
G1 X13.8075 Y-8.6712
G1 X13.6549 Y-8.6423
G1 X13.499 Y-8.6198
G1 X13.3398 Y-8.6037
G1 X13.1773 Y-8.5941
G1 X13.0115 Y-8.5908
G1 X12.8966
G1 X12.7589 Y-8.6006
G1 X12.6232 Y-8.6154
G1 X12.4896 Y-8.6353
G1 X12.3579 Y-8.6602
G1 X12.2283 Y-8.6903
G1 X12.1007 Y-8.7254
G1 X11.9751 Y-8.7657
G1 X11.8515 Y-8.811
G1 X11.7299 Y-8.8614
G1 X11.6104 Y-8.9168
G1 X11.4929 Y-8.9774
G1 X11.3774 Y-9.0431
G1 X11.2639 Y-9.1138
G1 X11.1524 Y-9.1896
G1 X11.0429 Y-9.2705
G1 X10.9355 Y-9.3565
G1 X10.8324 Y-9.447
G1 X10.7359 Y-9.5416
G1 X10.6461 Y-9.6402
G1 X10.5629 Y-9.7429
G1 X10.4864 Y-9.8495
G1 X10.4166 Y-9.9602
G1 X10.3534 Y-10.075
G1 X10.2969 Y-10.1938
G1 X10.247 Y-10.3166
G1 X10.2037 Y-10.4434
G1 X10.1671 Y-10.5743
G1 X10.1372 Y-10.7092
G1 X10.1139 Y-10.8482
G1 X10.0973 Y-10.9912
G1 X10.0873 Y-11.1382
G1 X10.084 Y-11.2892
G1 X10.0854 Y-11.362
G1 X10.0897 Y-11.4345
G1 X10.0968 Y-11.5066
G1 X10.1067 Y-11.5784
G1 X10.1195 Y-11.65
G1 X10.1351 Y-11.7212
G1 X10.1536 Y-11.792
G1 X10.1749 Y-11.8626
G1 X10.199 Y-11.9328
G1 X10.226 Y-12.0027
G1 X10.2558 Y-12.0724
G1 X10.2884 Y-12.1416
G1 X10.3623 Y-12.2793
G1 X10.4475 Y-12.4156
G1 X10.544 Y-12.5507
G1 X10.6519 Y-12.6845
G1 X10.7712 Y-12.817
G1 X10.9018 Y-12.9483
G1 X11.0438 Y-13.0782
G1 X11.1972 Y-13.207
G1 X11.3619 Y-13.3344
G1 X11.538 Y-13.4606
G1 X12.9442 Y-14.3812
G1 X14.255 Y-15.1345
G1 X15.7678 Y-15.9874
G1 X17.2065 Y-16.8807
G1 X18.571 Y-17.8147
G1 X19.8613 Y-18.7892
G1 X20.1579 Y-19.0406
G1 X20.4353 Y-19.307
G1 X20.6936 Y-19.5883
G1 X20.9328 Y-19.8846
G1 X21.1528 Y-20.1958
G1 X21.3537 Y-20.522
G1 X21.5355 Y-20.8631
G1 X21.6981 Y-21.2192
G1 X21.8416 Y-21.5902
G1 X21.966 Y-21.9761
G1 X22.0712 Y-22.377
G1 X22.1573 Y-22.7929
G1 X22.163 Y-22.8295
G0 Z3.0
M5
M30
